X: 30452
M: 6/8
L: 1/8
K: C
c2c cGc | d2d dGd | ece gec | dBG G3 |\
c2e gec | ded g2B | e^fg A2f | g3 G2 :|
|: A |\
dGA BAG | ecd edc | fdf ece | d3 GAB |\
cGc d[GE]d | ece f2a | gec G2B | c3- c2 :|


